!!!OTL: HEU MARTIS ALEA
!!!ARE: Europa, Mitteleuropa, Deutschland
!!!SCT: E0314
!!!YEM: Copyright 1995, estate of Helmut Schaffrath.
**kern
*ICvox
*Ivox
*M2/2
*k[]
*C:
{4c
=1
4.c
8c
4c
4d
=2
2e
4r}
{4e
=3
4.e
8e
4e
4d
=4
4.e
8e
4d}
{4e
=5
4e#
4e
4d
4c
=6
2d
4r}
{4d
=7
4.d
8e
4d
4c
=8
4B
4c
4d}
{4d
=9
4.d
8e
4d
4c
=10
4B
4c
4d}
{4G
=11
4A
4c
4c
4B
=12
2.c}
==
!!!AGN: historisches Lied, Dreissigjaehriger Krieg
!!!ONB: ESAC (Essen Associative Code) Database: ERK1
!!!AMT: simple duple
!!!AIN: vox
!!!EED: Helmut Schaffrath
!!!EEV: 1.0
*-
